X:1
T:Title
%%score ( 1 2 ) { 3 | 4 }
L:1/8
Q:1/4=108
M:4/4
K:G
V:1 treble nm="Grand Piano, Soprano"
V:2 treble 
V:3 bass nm="Choir Pad, Baton Rouge, CMD"
V:4 bass 
V:1
 [CD]2 [B,G]2 [DG]2 [DF]2 | ED [B,G]2 [DA]2 [DB]2 | Bcde dB [DG]2 | [DB]2 [DA]6 | %4
w: By~William~Howard~Doane,~1873 * * *||||
 [CD]2 [B,G]2 [DG]2 [DF]2 | C-[CD] [B,G]2 [DA]2 [DB]2 | Bc [Gd]2 dc [GB]2 | [FA]2 G6 | %8
w: ||||
 [DF][EG] [FA]2 [FA]2 [FA][EG] | [FA][GB] [Ac]2- [Ac][GB] [FA]2 | Bd [Gd]2 [Gd]2 ed | %11
w: |||
 [Ac][GB] [FA]6 | dc [GB]2 [GB]2 cB | AG [EG]2 [Gc]2 [Ge]2 | [Ge]2 [Gd]2 BG [DA]2 | GF [DG]6- | %16
w: |||||
 [DG]2 z2 z4 |] %17
w: |
V:2
 x8 | C2 z2 z4 | G2 G2 G2 z2 | x8 | x8 | .E2 z2 z4 | G2 z2 G2 z2 | x8 | x8 | x8 | G2 z2 z2 G2 | %11
 x8 | A2 z2 z2 =F2 | =F2 z2 z4 | z4 D2 z2 | D2 z2 z4 | x8 |] %17
V:3
 A,2 B,2 B,2 A,2 | A,2 B,2 F,2 G,2 | G,A,B,C B,D B,2 | G,2 F,6 | A,2 B,2 B,2 A,2 | %5
 A,2 B,2 F,2 G,2 | G,A, B,2[K:treble] E2 D2 | C2 B,6 | A,2 D2 D2 D2 | D2 D2- DD D2 | %10
 D[K:bass]A, B,2 B,2 CB, | D2 D6 | D2 D2 D2 D2 | CB, C2 G,2 C2 | C2[K:bass] B,2 G,B, C2 | %15
 B,A, B,6- | B,2 z2 z4 |] %17
V:4
 D,2 G,,A,, B,,C, D,2 | E,F, G,2 D,2 G,,2 | z2 G,2 G,2 G,2 | G,,2 D,6 | D,2 G,,A,, B,,C, D,2 | %5
 E,F, G,2 D,2 G,,2 | z2 G,2 C,2 D,2 | D,2 G,6 | D,2 D,2 D,2 D,2 | D,2 F,2- F,G, D,2 | %10
 G,2 G,2 G,2 G,2 | F,G, D,6 | F,2 G,2 G,2 G,2 | G,2 C,2 C,2 C,2 | C,2 D,2 D,2 D,2 | D,2 G,,6- | %16
 G,,2 z2 z4 |] %17

